!!!OTL: Doen Hanselijn over der heiden reet
!!!ARE: Europa, Mitteleuropa, Deutschland
!!!SCT: L0063
!!!YEM: Copyright 1995, estate of Helmut Schaffrath.
**kern
*ICvox
*Ivox
*M3/4
*k[f#]
*e:
{4e
=1
4.gn
8gn
4gn
=2
4.gn
8gn
4gn
=3
2a
4gn
=4
2a}
{4a
=5
2ccn
4ccn
=6
4b
2a
=7
4.gn
8fn
8e
8dn
=8
2e}
{4e
=9
2a
4a
=10
2a
4a
=11
2gn
4e
=12
2cn}
{4cn
=13
2gn
4gn
=14
4e
4fn
4gn
=15
2.a
=16
2gn
4ccn
=17
4.b
8a
8gn
8fn
=18
2e}
==
!!!AGN: Lied
!! Souterliedekens 1540 No. 69
!!!ONB: ESAC (Essen Associative Code) Database: ERK5
!!!AMT: simple triple
!!!AIN: vox
!!!EED: Helmut Schaffrath
!!!EEV: 1.0
*-
